X:1
T:Title
%%score ( 1 2 ) ( 3 4 )
L:1/8
Q:1/4=93
M:4/4
K:A
V:1 treble nm="Grand Piano, Soprano"
V:2 treble 
V:3 bass nm="Choir Pad, Be Loyal, Pilgrims"
V:4 bass 
V:1
 [CE]>[CE] [CA]>[DB] [Ec]>[DB] [CA]2 | [CA]>[EG] [DF]>[EG] [FA]>[DF] [CE]2 | %2
w: By~George~Blackburn~Holsinger * * * * * *||
 [CE]>[CE] [CA]>[CA] [EA]>[EB] [Ec]2 | [Ae]2 [Gd]2 [Ac]2 [GB]2 | E>E [Ec]>[Ed] [Ae]>[Ec] [EA]2 | %5
w: |||
 [EA]>[EG] [EG]>[DF] [DF]>[DF] [Fd]2 | [Fd]>[FB] [Ec]>[Ec] [CE]>[Ec] [DB]>[CA] | [DG]>[DB] [CA]6 | %8
w: |||
 [Ac]>[Bd] [ce]4- [ce]>[Ec] | [EA]>E [DF]6 | z2 d6 | [Ec]>[EB] [Ec]6 | [Ac]>[Bd] [ce]4- [ce]>[Ec] | %13
w: |||||
 [EA]>E [DF]6 | [DB]>[Fd] [Ec]>[Ec] [CE]>[Ec] [DB]>[CA] | z2 A6- | A6 z2 |] %17
w: ||||
V:2
 x8 | x8 | x8 | x8 | x8 | x8 | x8 | x8 | x8 | x8 | [FB]>[Fc] F4 G>[Fd] | x8 | x8 | x8 | x8 | %15
 [DG]>[DB] C2 D2 C2- | C6 z2 |] %17
V:3
 [A,,A,]>[A,,A,] [A,,A,]>[A,,A,] [A,,A,]>[A,,A,] [A,,A,]2 | %1
 [A,,A,]>[C,A,] [D,A,]>[D,A,] [D,A,]>[D,A,] [A,,A,]2 | %2
 [A,,A,]>[A,,A,] [A,,A,]>[A,,A,] [C,A,]>[E,G,] A,2 | [CE]2 [B,E]2 [A,E]2 [E,E]2 | %4
 [E,G,]>[E,G,] A,>[A,B,] [A,C]>[A,C] [A,C]2 | [C,A,]>[C,A,] [D,A,]>[D,A,] [D,A,]>[D,A,] [D,A,]2 | %6
 [D,A,]>[D,A,] [E,A,]>[E,A,] [E,A,]>[E,A,] [E,G,]>[E,A,] | [E,B,]>[E,G,] [A,,A,]6 | %8
 z4 [A,C]>[B,D] [CE]>[A,E] | [E,C]>[C,A,] [D,A,]>[D,A,] [D,A,]>[D,A,] [D,A,]2 | %10
 [D,B,]>[C,^A,] [B,,B,]>[B,,B,] [B,,B,]>[B,,B,] [E,B,]>[E,=A,] | %11
 [E,G,]>[E,G,] [A,,A,]>[A,,A,] [C,A,]>[E,A,] A,2 | z4 [A,C]>[B,D] [CE]>[A,E] | %13
 [E,C]>[C,A,] [D,A,]2 [D,A,]>[D,A,] [D,A,]2 | %14
 [D,A,]>[D,A,] [E,A,]>[E,A,] [E,A,]>[E,A,] [E,G,]>[E,A,] | [E,B,]>[E,G,] A,2 F,2 E,2- | E,6 z2 |] %17
V:4
 x8 | x8 | x8 | x8 | x8 | x8 | x8 | x8 | x8 | x8 | x8 | x8 | x8 | x8 | x8 | z2 A,,6- | A,,6 z2 |] %17

